X:1
T:James Gibb editions
T:Diffusa est -Bottazzo
T:#
%%score { 1 | 2 } 3
L:1/8
Q:1/4=76
M:4/4
K:F
V:1 treble nm="Soprano I" snm="S"
V:2 treble 
V:3 treble nm="Alto" snm="A"
V:1
"^andante""^Luigi Bottazzo\n (1845-1924)""^Diffusa est, op.146/1" z2 | z8 | z4 z2!p! d2 | %3
w: ||Dif-|
 (g3 f) e2 f2 |!f! e3 e"^," e2!p! A2 |[M:4/4] d2 e2 f2 z2 | z2 d2 g2 cf | (f2 e2 d4) | %8
w: fu\- * sa est|gra- ti- a in|la- bi- is|in la- bi- is|tu\- * *|
 c4- c z!p! (GA) | B3 c"^," A2 AB | c3 d"^," B2 d2- | d2 ^c2 d2 f2 | f4 e2!f! cc | (f8 | %14
w: is. * Pro\- *|pte- re- a be- ne-|di- xit te De\-|* us in ae-|ter- num et in|sae\-|
 g2) d2 e2 f2- | f2 d2 e4 | !fermata!f8 || c2 c2 d4 | !fermata!c8 |] %19
w: * cu- lum sae\-|* * cu-|li.|Al- le- lu-|ia.|
V:2
 z2 | z4 z2!p! A2 | (d3 c) B2 B2 | (B6 Ad |!f! ^c3) c"^," c2!p! A2 |[M:4/4] A2 A2"^," A2 (d=c) | %6
w: |Dif-|fu\- * sa est|gra\- * *|* ti- a in|la- bi- is, in *|
 =B4 c2 A2 | (=B2 c4 B2) | c4- c z!p! E2 | F2 G2"^," F2 FF | G2 A2 G2 z2 | G2 B2 A2 (d=c) | %12
w: la- bi- is|tu\- * *|is. * Pro-|pte- re- a be- ne-|di- xit te|De- us in ae\- *|
 B4 B2 z2 | z2!f! AA (d2 c2 | =B4) c2 A2 | G6 (c_B) | !fermata!A8 || A2 A2 B4 | !fermata!A8 |] %19
w: ter- num|et in sae\- *|* cu- lum|sae- cu\- *|li.|Al- le- lu-|ia.|
V:3
!p! C2 | (F3 E)"^," D2 C2 | B,2 D2"^," G2 (GF) | (E2 D2 ^C2 DF |!f! A3) A"^," A2!p! (AG) | %5
w: Dif-|fu\- * sa est|gra- ti- a, est *|gra\- * * * *|* ti- a in *|
[M:4/4] F2 E2 D2 z2 | z2 (GF) E2 FD | (G2 AE F2 G2) | C4- C z!p! C2 | D2 E2"^," F2 DD | %10
w: la- bi- is|in * la- bi- is|tu\- * * * *|is. * Pro-|pte- re- a be- ne-|
 E2 F2 G2 z2 | E2 G2 (FE) D2 | G4 G2 z2 | z2!f! FF (B2 A2 | G4) C2 (DC) | B,4 C4 | !fermata!F8 || %17
w: di- xit te|De- us in * ae-|ter- num|et in sae\- *|* cu- lum *|sae- cu-|li.|
 F2 F2 B,4 | !fermata!F8 |] %19
w: Al- le- lu-|ia.|

